public/library/rainbowkit-icon-dark.svg

<svg width="120" height="120" viewBox="0 0 120 120" fill="none" xmlns="http://www.w3.org/2000/svg">
<g clip-path="url(#clip0_8_458)">
<rect width="120" height="120" fill="url(#paint0_linear_8_458)"/>
<path d="M20 38H26C56.9279 38 82 63.0721 82 94V100H94C97.3137 100 100 97.3137 100 94C100 53.1309 66.8691 20 26 20C22.6863 20 20 22.6863 20 26V38Z" fill="url(#paint1_radial_8_458)"/>
<path d="M84 94H100C100 97.3137 97.3137 100 94 100H84V94Z" fill="url(#paint2_linear_8_458)"/>
<path d="M26 20L26 36H20L20 26C20 22.6863 22.6863 20 26 20Z" fill="url(#paint3_linear_8_458)"/>
<path d="M20 36H26C58.0325 36 84 61.9675 84 94V100H66V94C66 71.9086 48.0914 54 26 54H20V36Z" fill="url(#paint4_radial_8_458)"/>
<path d="M68 94H84V100H68V94Z" fill="url(#paint5_linear_8_458)"/>
<path d="M20 52L20 36L26 36L26 52H20Z" fill="url(#paint6_linear_8_458)"/>
<path d="M20 62C20 65.3137 22.6863 68 26 68C40.3594 68 52 79.6406 52 94C52 97.3137 54.6863 100 58 100H68V94C68 70.804 49.196 52 26 52H20V62Z" fill="url(#paint7_radial_8_458)"/>
<path d="M52 94H68V100H58C54.6863 100 52 97.3137 52 94Z" fill="url(#paint8_radial_8_458)"/>
<path d="M26 68C22.6863 68 20 65.3137 20 62L20 52L26 52L26 68Z" fill="url(#paint9_radial_8_458)"/>
</g>
<defs>
<linearGradient id="paint0_linear_8_458" x1="60" y1="0" x2="60" y2="120" gradientUnits="userSpaceOnUse">
<stop stop-color="#174299"/>
<stop offset="1" stop-color="#001E59"/>
</linearGradient>
<radialGradient id="paint1_radial_8_458" cx="0" cy="0" r="1" gradientUnits="userSpaceOnUse" gradientTransform="translate(26 94) rotate(-90) scale(74)">
<stop offset="0.770277" stop-color="#FF4000"/>
<stop offset="1" stop-color="#8754C9"/>
</radialGradient>
<linearGradient id="paint2_linear_8_458" x1="83" y1="97" x2="100" y2="97" gradientUnits="userSpaceOnUse">
<stop stop-color="#FF4000"/>
<stop offset="1" stop-color="#8754C9"/>
</linearGradient>
<linearGradient id="paint3_linear_8_458" x1="23" y1="20" x2="23" y2="37" gradientUnits="userSpaceOnUse">
<stop stop-color="#8754C9"/>
<stop offset="1" stop-color="#FF4000"/>
</linearGradient>
<radialGradient id="paint4_radial_8_458" cx="0" cy="0" r="1" gradientUnits="userSpaceOnUse" gradientTransform="translate(26 94) rotate(-90) scale(58)">
<stop offset="0.723929" stop-color="#FFF700"/>
<stop offset="1" stop-color="#FF9901"/>
</radialGradient>
<linearGradient id="paint5_linear_8_458" x1="68" y1="97" x2="84" y2="97" gradientUnits="userSpaceOnUse">
<stop stop-color="#FFF700"/>
<stop offset="1" stop-color="#FF9901"/>
</linearGradient>
<linearGradient id="paint6_linear_8_458" x1="23" y1="52" x2="23" y2="36" gradientUnits="userSpaceOnUse">
<stop stop-color="#FFF700"/>
<stop offset="1" stop-color="#FF9901"/>
</linearGradient>
<radialGradient id="paint7_radial_8_458" cx="0" cy="0" r="1" gradientUnits="userSpaceOnUse" gradientTransform="translate(26 94) rotate(-90) scale(42)">
<stop offset="0.59513" stop-color="#00AAFF"/>
<stop offset="1" stop-color="#01DA40"/>
</radialGradient>
<radialGradient id="paint8_radial_8_458" cx="0" cy="0" r="1" gradientUnits="userSpaceOnUse" gradientTransform="translate(51 97) scale(17 45.3333)">
<stop stop-color="#00AAFF"/>
<stop offset="1" stop-color="#01DA40"/>
</radialGradient>
<radialGradient id="paint9_radial_8_458" cx="0" cy="0" r="1" gradientUnits="userSpaceOnUse" gradientTransform="translate(23 69) rotate(-90) scale(17 322.37)">
<stop stop-color="#00AAFF"/>
<stop offset="1" stop-color="#01DA40"/>
</radialGradient>
<clipPath id="clip0_8_458">
<rect width="120" height="120" fill="white"/>
</clipPath>
</defs>
</svg>

<svg xmlns="http://www.w3.org/2000/svg" width="120" height="120" fill="none" viewBox="0 0 120 120"><g clip-path="url(#a)"><path fill="url(#b)" d="M0 0h120v120H0z"/><path fill="url(#c)" d="M20 38h6c30.928 0 56 25.072 56 56v6h12a6 6 0 0 0 6-6c0-40.87-33.13-74-74-74a6 6 0 0 0-6 6z"/><path fill="url(#d)" d="M84 94h16a6 6 0 0 1-6 6H84z"/><path fill="url(#e)" d="M26 20v16h-6V26a6 6 0 0 1 6-6"/><path fill="url(#f)" d="M20 36h6c32.033 0 58 25.968 58 58v6H66v-6c0-22.091-17.909-40-40-40h-6z"/><path fill="url(#g)" d="M68 94h16v6H68z"/><path fill="url(#h)" d="M20 52V36h6v16z"/><path fill="url(#i)" d="M20 62a6 6 0 0 0 6 6c14.36 0 26 11.64 26 26a6 6 0 0 0 6 6h10v-6c0-23.196-18.804-42-42-42h-6z"/><path fill="url(#j)" d="M52 94h16v6H58a6 6 0 0 1-6-6"/><path fill="url(#k)" d="M26 68a6 6 0 0 1-6-6V52h6z"/></g><defs><radialGradient id="c" cx="0" cy="0" r="1" gradientTransform="matrix(0 -74 74 0 26 94)" gradientUnits="userSpaceOnUse"><stop offset=".77" stop-color="#ff4000"/><stop offset="1" stop-color="#8754c9"/></radialGradient><radialGradient id="f" cx="0" cy="0" r="1" gradientTransform="matrix(0 -58 58 0 26 94)" gradientUnits="userSpaceOnUse"><stop offset=".724" stop-color="#fff700"/><stop offset="1" stop-color="#ff9901"/></radialGradient><radialGradient id="i" cx="0" cy="0" r="1" gradientTransform="matrix(0 -42 42 0 26 94)" gradientUnits="userSpaceOnUse"><stop offset=".595" stop-color="#0af"/><stop offset="1" stop-color="#01da40"/></radialGradient><radialGradient id="j" cx="0" cy="0" r="1" gradientTransform="matrix(17 0 0 45.3333 51 97)" gradientUnits="userSpaceOnUse"><stop stop-color="#0af"/><stop offset="1" stop-color="#01da40"/></radialGradient><radialGradient id="k" cx="0" cy="0" r="1" gradientTransform="matrix(0 -17 322.37 0 23 69)" gradientUnits="userSpaceOnUse"><stop stop-color="#0af"/><stop offset="1" stop-color="#01da40"/></radialGradient><linearGradient id="b" x1="60" x2="60" y1="0" y2="120" gradientUnits="userSpaceOnUse"><stop stop-color="#174299"/><stop offset="1" stop-color="#001e59"/></linearGradient><linearGradient id="d" x1="83" x2="100" y1="97" y2="97" gradientUnits="userSpaceOnUse"><stop stop-color="#ff4000"/><stop offset="1" stop-color="#8754c9"/></linearGradient><linearGradient id="e" x1="23" x2="23" y1="20" y2="37" gradientUnits="userSpaceOnUse"><stop stop-color="#8754c9"/><stop offset="1" stop-color="#ff4000"/></linearGradient><linearGradient id="g" x1="68" x2="84" y1="97" y2="97" gradientUnits="userSpaceOnUse"><stop stop-color="#fff700"/><stop offset="1" stop-color="#ff9901"/></linearGradient><linearGradient id="h" x1="23" x2="23" y1="52" y2="36" gradientUnits="userSpaceOnUse"><stop stop-color="#fff700"/><stop offset="1" stop-color="#ff9901"/></linearGradient><clipPath id="a"><path fill="#fff" d="M0 0h120v120H0z"/></clipPath></defs></svg>
